X:1
T:Title
%%score { ( 1 3 ) | ( 2 4 ) }
L:1/8
M:4/4
K:G
V:1 treble nm="Grand Piano"
V:3 treble 
V:2 bass 
V:4 bass 
V:1
 z4 z2 z[Q:1/4=94] [B,D] | [B,D]>[_B,^C] [=B,D]>[=CE] [B,D] [DG]2 [DF] | %2
[M:7/8] [CE]>[CE][EG]>[CE][CE] [B,D]2 |[M:1/8] [B,D] |[M:4/4] G>G G>A B>B d>d |[M:3/4] A6 | %6
[M:1/4] B2 |[M:4/4] d>d d>B A G2 [DF] |[M:7/8] [CE]>[CE][EG]>[CE][CE] [B,D]2 |[M:1/8] [B,D] | %10
[M:4/4] [CE]>[CE] [Ec]>[Ec] B>B A>A |[M:3/4] G6 |[M:1/4] B2 | %13
[M:4/4] [Fc]>[Fc] [Fc]>[Fc] [Ac]>[Ac] [GB]>[FA] |[M:3/4] B6 |[M:1/4] B2 |[M:4/4] A>A A>A d>d ^c>c | %17
[M:3/4] d2- [Ad-]>[Gd-] [Fd]2 |[M:1/4] [DFc]2 |[M:4/4] B>B B>G A G2 [DF] | %20
[M:7/8] [CE]>[CE][EG]>[CE][CE] [B,D]2 |[M:1/8] [B,D] |[M:4/4] [CE]>[CE] [Ec]>[Ec] B>B A>A | %23
[M:7/8] G2- [EG-]>[EG-] [DG]2 z |] %24
V:2
 z4 z2 z [G,,G,] | [G,,G,]>[G,,G,] [G,,G,]>[G,,G,] [G,,G,] [G,,G,]2 [B,,G,] | %2
[M:7/8] [C,G,]>[C,G,][C,C]>[C,G,][G,,G,] [G,,G,]2 |[M:1/8] [G,,G,] | %4
[M:4/4][K:treble] [G,B,D]>[G,B,D] [G,B,D]>[G,CD] [G,DG]>[G,DG] [G,B,G]>[G,B,G] | %5
[M:3/4][K:bass] D,2 A,,>A,, [D,D]2 |[M:1/4][K:treble] [G,DG]2 | %7
[M:4/4] [G,B,G]>[G,B,G] [G,B,G]>[G,DG][K:bass] [G,CD] [G,B,D]2 [B,,G,] | %8
[M:7/8] [C,G,]>[C,G,][C,C]>[C,G,][G,,G,] [G,,G,]2 |[M:1/8] [G,,G,] | %10
[M:4/4] [C,G,]>[C,G,] [C,G,]>[C,G,] [D,G,D]>[D,G,D] [D,CD]>[D,CD] |[M:3/4] z2[K:treble] C>C B,2 | %12
[M:1/4] [G,DG]2 |[M:4/4][K:bass] [D,D]>[D,D] [D,D]>[D,D] [D,D]>[D,D] [D,D]>[D,D] | %14
[M:3/4][K:treble] [G,DG]2 [G,D]>[G,D] [G,D]2 |[M:1/4] [G,DG]2 | %16
[M:4/4] [A,DF]>[A,DF] [A,DF]>[A,DF] [A,DF]>[A,DF] [A,EG]>[A,EG] |[M:3/4][K:bass] z2 C>B, A,2 | %18
[M:1/4] D,2 |[M:4/4][K:treble] [G,DG]>[G,DG] [G,DG]>[G,B,D] [G,CD][K:bass] [G,B,D]2 [B,,G,] | %20
[M:7/8] [C,G,]>[C,G,][C,C]>[C,G,][G,,G,] [G,,G,]2 |[M:1/8] [G,,G,] | %22
[M:4/4] [C,G,]>[C,G,] [C,G,]>[C,G,] [D,G,D]>[D,G,D] [D,CD]>[D,CD] |[M:7/8] z2 C>C B,2 z |] %24
V:3
 x8 | x8 |[M:7/8] x7 |[M:1/8] x |[M:4/4] x8 |[M:3/4] [DF]2 [^CG]>[CG] F2 |[M:1/4] x2 |[M:4/4] x8 | %8
[M:7/8] x7 |[M:1/8] x |[M:4/4] x8 |[M:3/4] [B,D]2 E>E D2 |[M:1/4] x2 |[M:4/4] x8 | %14
[M:3/4] z2 G>G G2 |[M:1/4] x2 |[M:4/4] x8 |[M:3/4] [DF]2 z2 z2 |[M:1/4] x2 |[M:4/4] x8 | %20
[M:7/8] x7 |[M:1/8] x |[M:4/4] x8 |[M:7/8] [B,D]2 z z z z2 |] %24
V:4
 x8 | x8 |[M:7/8] x7 |[M:1/8] x |[M:4/4][K:treble] x8 |[M:3/4][K:bass] x6 |[M:1/4][K:treble] x2 | %7
[M:4/4] x4[K:bass] x4 |[M:7/8] x7 |[M:1/8] x |[M:4/4] x8 |[M:3/4] G,,6[K:treble] |[M:1/4] x2 | %13
[M:4/4][K:bass] x8 |[M:3/4][K:treble] x6 |[M:1/4] x2 |[M:4/4] x8 |[M:3/4][K:bass] D,6 |[M:1/4] x2 | %19
[M:4/4][K:treble] x5[K:bass] x3 |[M:7/8] x7 |[M:1/8] x |[M:4/4] x8 |[M:7/8] G,,-G,,-G,,- G,,3 z |] %24

